X:1
T:Land of Rest, CMD
T:Land of Rest, CMD
T:Richard S. Newman, 1879
T:Public Domain Courtesy of the Cyber Hymnal™
C:Richard S. Newman, 1879
Z:Public Domain
Z:Courtesy of the Cyber Hymnal™
%%score ( 1 2 ) ( 3 4 )
L:1/8
Q:1/4=115
M:4/4
K:F
V:1 treble 
V:2 treble 
V:3 bass 
V:4 bass 
V:1
 C2 | [FA]3 [FA] [FB]2 [FA]2 | [DG]2 [Ed]2 [Fc]2 [CA]2 | [DF]3 [CF] [=B,E]2 [B,F]2 | [CG]6 C2 | %5
 [CA]3 [FA] [FB]2 [FA]2 | [DG]2 [Ed]2 [Fc]2 [Ad]2 | [Ge]3 [Gc] [GA]2 [F=B]2 | [Ec]6 [Ec]2 | %9
 [EB]3 [EA] [EG]2 [Ed]2 | [Fc]3 [EB] [FA]2 [A_e]2 | [Ad]3 [^Fc] [GB]2 [DA]2 | [DB]6 [EG]2 | %13
 [FA]2 [EB]2 [Fc]2 [Fc]2 | [Gf]2 [Ge]2 !fermata![Fd]2 [FG]2 | [FA]3 F [EA]2 [EG]2 | F6 |] %17
V:2
 C2 | x8 | x8 | x8 | x6 C2 | x8 | x8 | x8 | x8 | x8 | x8 | x8 | x8 | x8 | x8 | x3 F x4 | F6 |] %17
V:3
 [F,A,]2 | [F,C]3 [F,C] [F,D]2 [F,C]2 | [F,=B,]2 [F,_B,]2 [F,A,]2 [F,A,]2 | %3
 [D,A,]3 [D,A,] [G,,G,]2 [D,F,]2 | [C,E,]6 [E,G,]2 | [F,A,]3 [F,C] [F,D]2 [F,C]2 | %6
 [F,=B,]2 [F,_B,]2 [F,A,]2 [^F,C]2 | [G,C]3 [G,E] [G,E]2 [G,D]2 | [C,C]6 [C,C]2 | %9
 [C,G,]3 [C,A,] [C,B,]2 [B,C]2 | [A,C]3 [G,C] [F,C]2 [F,C]2 | [^F,D]3 [D,A,] [E,D]2 [F,C]2 | %12
 [G,B,]6 [B,C]2 | [A,C]2 [G,B,]2 [F,A,]2 [A,C]2 | [A,^C]2 [A,C]2 !fermata![B,D]2 [=B,D]2 | %15
 C3 [A,C] [C,C]2 [C,B,]2 | [F,A,]6 |] %17
V:4
 x2 | x8 | x8 | x8 | x8 | x8 | x8 | x8 | x8 | x8 | x8 | x8 | x8 | x8 | x8 | C3 x5 | x6 |] %17

